X:1
T:Lauchie Wilson
M:4/4
L:1/8
K:G
 D| DB A G/2G/2 GB, D D/2D/2| FF E/2E/2 D B3 D| D/2D/2 BAG/2-G/2 GB, DD|\
 FG AB| G3 D| D/2D/2 BA-G GB, DD| FF ED B3 D| DB A G/2G/2 GB, D D/2D/2|\
 F/2F/2 GA B G3||
